X: 10782
M: C|
L: 1/8
K: D
|:\
(gb)fa (ef)dA | gfed B/B/BB2 | (gb)fa (ef)dA | BdAF D/D/DD2 |
(gb)fa (ef)dA | gfed B/B/BB2 | gefd ecdA | BdAF D/D/D"_Fine."D2 "^D.C."|]


